X:1
T:Memories of Earth
T:Memories of Earth
T:James McGranahan
T:William Paton Mackay, 1878
T:Public Domain Courtesy of the Cyber Hymnal™
T:Public Domain Courtesy of the Cyber Hymnal™
C:James McGranahan
Z:Public Domain
Z:Courtesy of the Cyber Hymnal™
%%score ( 1 2 ) ( 3 4 )
L:1/8
Q:1/4=98
M:3/4
K:G
V:1 treble 
V:2 treble 
V:3 bass 
V:4 bass 
V:1
 [B,D]>[B,G] | [DB]7/2 [Ec]/ [DB]>[CA] | [B,G]2 [B,D]2 GB3/4 x/4 | [Bd]7/2 [ce]/ [Bd]>[Ac] | %4
w: 1.~When we|reach our Fa- ther’s|dwell- ing, On the|strong e- ter- nal|
w: 2.~When the|paths of prayer and|du- ty, And af-|flic- tion all are|
w: 3.~And the|way by which He|brought us, All the|griev- ings that He|
 [GB]4 [GB]>[GB] | [Ac]7/2 [^GB]/ [Ac]>[GB] | [Ac]2 [FA]2 [GB]>[Ac] | [Bd]7/2 [^A^c]/ [Bd]>[Ac] | %8
w: hills, And our|praise to Him is|swell- ing Who the|vast cre- a- tion|
w: trod, And we|wake and see the|beau- ty Of our|Sav- ior and our|
w: bore, All the|pa- tient love that|taught us, We’ll re-|mem- ber ev- er-|
 [Bd]4 [Bd]>[Ac] | [GB]7/2 [Ec]/ [DB]>[CA] | [B,G]2 [B,D]2 (3:2:2([B,G]D)B3/4 x/24 | %11
w: fills, Shall we|then re- call the|sad- ness, And * the|
w: God, Shall we|then re- call the|sto- ry Of * our|
w: more, And His|rest will be the|dear- er, As * we|
 [Bd]7/2 [ce]/ [Bd]>[Ac] | [GB]4 [DB]>[DB] | [Ec]7/2 [Fd]/ [Ge]>[Ec] | %14
w: clouds that hung so|dim, When our|hearts were turned from|
w: mor- tal griefs and|tears, When on|earth we sought the|
w: think of wea- ry|ways, And His|light will be the|
 ([GB]>[Ac]) [Bd]2 [Bd]>[GB] | [FA]7/2 [Ac]/ [GB]>[FA] | G4 ||"^Refrain" G>G | %18
w: hard- * ness, And our|feet from paths of|sin?||
w: glo- * ry Wrest- ling|oft with doubts and|fears?|Yes, we|
w: clear- * er As we|muse on cloud- y|days.||
 [Ec]7/2 [Fd]/ [Ge]>[Gc] | (B>c) [Gd]2 [Gd]>[GB] | [FA]7/2 [GB]/ [Ac]>[Bd] | [GB]4 [=FG]>[FG] | %22
w: ||||
w: sure- ly shall re-|mem- * ber, And His|grace we’ll free- ly|own, For the|
w: ||||
 [Ec]7/2 [Fd]/ [Ge]>[Gc] | (B>c) [Gd]2 [Gd]>[GB] | [FA]7/2 [Fc]/ [GB]>[DA] | [DG]4 |] %26
w: ||||
w: love so strong and|ten- * der, That re-|deemed and brought us|home.|
w: ||||
V:2
 x2 | x6 | x4 (3(B,D)G | x6 | x6 | x6 | x6 | x6 | x6 | x6 | x16/3 (3:2:1G | x6 | x6 | x6 | x6 | %15
 x6 | G4 || G>G | x6 | G2 x4 | x6 | x6 | x6 | G2 x4 | x6 | x4 |] %26
V:3
 z2 | ([G,,G,]2 [G,,G,]2) [G,,G,]2 | [G,,G,]2 [G,,G,]2 [G,,G,]2 | [G,,G,]2 [G,B,D]2 [G,B,D]2 | %4
 ([G,,G,]2 [G,B,D]2) [G,B,D]2 | ([D,,D,]2 [D,F,A,D]2) [D,F,A,D]2 | [D,,D,]2 [D,F,A,D]2 z2 | %7
 ([G,,G,]2 [G,B,]2) [G,B,D]2 | ([G,,G,]2 [D,F,A,D]2) z2 | ([G,,G,]2 [G,,G,]2) [G,,G,]2 | %10
 [G,,D,G,]4 z2 x/8 | ([G,,G,]2 [G,B,D]2) [G,B,D]2 | ([G,,G,]2 [G,B,D]2) [G,B,D]2 | %13
 ([C,C]2 [CE]2) [CE]2 | [G,,G,]2 [G,B,D]2 [G,B,D]2 | ([D,,D,]2 [D,F,A,C]2) [D,F,A,C]2 | %16
 [G,,G,B,]4 || G,>G, | [C,G,]7/2 [C,G,]/ [C,C]>[C,E] | (D>C) [G,B,]2 [G,B,]>[G,D] | %20
 [D,D]7/2 [D,D]/ [D,D]>[D,D] | [G,D]4 [G,B,]>[G,B,] | [C,G,]7/2 [C,G,]/ [C,C]>[C,E] | %23
 (D>C) [G,B,]2 [G,B,]>[G,D] | [D,C]7/2 [D,A,]/ [D,D]>[D,C] | [G,,B,]4 |] %26
V:4
 x2 | x6 | x6 | x6 | x6 | x6 | x6 | x6 | x6 | x6 | x49/8 | x6 | x6 | x6 | x6 | x6 | x4 || G,>G, | %18
 x6 | G,2 x4 | x6 | x6 | x6 | G,2 x4 | x6 | x4 |] %26

